cmd/conneroh/_static/dist/svg/snowflake.svg

<svg height="18" viewBox="0 0 18 18" width="18" xmlns="http://www.w3.org/2000/svg"><g fill="none" stroke="#fff" stroke-linecap="round" stroke-linejoin="round" stroke-width="2" transform="scale(.75)"><path d="m10 20-1.25-2.5-2.75.5m4-14-1.25 2.5-2.75-.5m8 14 1.25-2.5 2.75.5m-4-14 1.25 2.5 2.75-.5"/><path d="m17 21-3-6h-4m7-12-3 6 1.5 3m-13.5 0h6.5l1.5-3m10 1-1.5 2 1.5 2"/><path d="m22 12h-6.5l-1.5 3m-10-5 1.5 2-1.5 2m3 7 3-6-1.5-3m-1.5-9 3 6h4"/></g></svg>

<svg xmlns="http://www.w3.org/2000/svg" width="24" height="24" fill="none" stroke="white" stroke-linecap="round" stroke-linejoin="round" stroke-width="2">
    <path d="m10 20-1.25-2.5L6 18m4-14L8.75 6.5 6 6m8 14 1.25-2.5L18 18M14 4l1.25 2.5L18 6"/>
    <path d="m17 21-3-6h-4m7-12-3 6 1.5 3M2 12h6.5L10 9m10 1-1.5 2 1.5 2"/>
    <path d="M22 12h-6.5L14 15M4 10l1.5 2L4 14m3 7 3-6-1.5-3M7 3l3 6h4"/>
</svg>
